icons/playstation-fill.svg

<svg xmlns="http://www.w3.org/2000/svg" width="24" height="24" fill="none"><g clip-path="url(#a)"><g><path fill="#121212" d="M22.5843 17.011C22.1543 17.554 21.1023 17.941 21.1023 17.941L13.2693 20.758V18.68L19.0333 16.623C19.6883 16.389 19.7883 16.057 19.2563 15.883C18.7263 15.708 17.7653 15.758 17.1103 15.994L13.2703 17.348V15.193L13.4903 15.118C13.4903 15.118 14.6003 14.724 16.1613 14.551C17.7213 14.379 19.6333 14.575 21.1333 15.144C22.8233 15.679 23.0133 16.467 22.5843 17.01V17.011ZM14.0143 13.474V8.162C14.0143 7.538 13.9003 6.964 13.3153 6.802C12.8683 6.658 12.5903 7.074 12.5903 7.697V21L9.00629 19.861V4C10.5303 4.283 12.7503 4.953 13.9433 5.355C16.9783 6.398 18.0073 7.697 18.0073 10.622C18.0073 13.473 16.2493 14.554 14.0153 13.474H14.0143ZM2.43129 18.464C0.696291 17.974 0.407291 16.954 1.19829 16.367C1.92929 15.825 3.17229 15.417 3.17229 15.417L8.31029 13.587V15.673L4.61329 16.998C3.96029 17.232 3.85929 17.564 4.39029 17.738C4.92129 17.913 5.88329 17.863 6.53729 17.628L8.31029 16.984V18.849L7.95729 18.909C6.18329 19.199 4.29329 19.078 2.43129 18.464Z"/></g></g><defs><clipPath id="a"><rect width="24" height="24" fill="white"/></clipPath></defs></svg>

<svg width="24" height="24" fill="none" xmlns="http://www.w3.org/2000/svg"><g clip-path="url(#a)"><path d="M22.584 17.011c-.43.543-1.482.93-1.482.93l-7.833 2.817V18.68l5.764-2.057c.655-.234.755-.566.223-.74-.53-.175-1.49-.125-2.146.111l-3.84 1.354v-2.155l.22-.075s1.11-.394 2.671-.567c1.56-.172 3.472.024 4.972.593 1.69.535 1.88 1.323 1.451 1.866v.001Zm-8.57-3.537V8.162c0-.624-.114-1.198-.699-1.36-.447-.144-.725.272-.725.895V21l-3.584-1.139V4c1.524.283 3.744.953 4.937 1.355 3.035 1.043 4.064 2.342 4.064 5.267 0 2.851-1.758 3.932-3.992 2.852Zm-11.583 4.99c-1.735-.49-2.024-1.51-1.233-2.097.731-.542 1.974-.95 1.974-.95l5.138-1.83v2.086l-3.697 1.325c-.653.234-.754.566-.223.74.531.175 1.493.125 2.147-.11l1.773-.644v1.865l-.353.06c-1.774.29-3.664.169-5.526-.445Z" /></g><defs><clipPath id="a"><path fill="#fff" d="M0 0h24v24H0z"/></clipPath></defs></svg>
